X: 9
T: No_107_Hinata_Dance_Song_(c).krn
N: Derived from No_107_Hinata_Dance_Song_(c).krn
%%abc-version 2.0
%%abcx-abcm2ps-target-version 5.9.1 (29 Sep 2008)
%%abc-creator hum2abc beta
%%abcx-conversion-date 2019/03/15 08:38:45
%%humdrum-veritas 509899665
%%humdrum-veritas-data 581079546
%%linebreak <none>
%%barnumbers 0
L: 1/8
M: 2/4
K: E clef=bass
[K:clef=bass][M:2/4]z2z3/ B,/ | 
F,2B,2 | 
F,3B, | 
A,3/F,/ C,3/E,/ ||  
[M:3/4](3E,E,C,B,,2B,,3/F,/ | 
(3E,E,C,B,,2B,,3/A,/ ||  
[M:2/4]A,3/F,/ C,3/E,/ | 
(3E,E,C,B,,2 | 
B,,4 |]  



